symbols/web/female/materialsymbolsrounded/female_wght100grad200_20px.svg

<svg xmlns="http://www.w3.org/2000/svg" height="20" width="20"><path d="M9.396 12.188q-1.563-.271-2.636-1.438-1.072-1.167-1.072-2.708 0-1.834 1.239-3.136Q8.167 3.604 10 3.604t3.073 1.302q1.239 1.302 1.239 3.136 0 1.541-1.072 2.708-1.073 1.167-2.636 1.438v2.437h1.208q.188 0 .323.135.136.136.136.323 0 .188-.136.334-.135.145-.323.145h-1.208v1.063q0 .229-.187.417-.188.187-.417.187-.229 0-.417-.187-.187-.188-.187-.417v-1.063H8.208q-.187 0-.333-.135-.146-.135-.146-.344 0-.187.136-.323.135-.135.343-.135h1.188ZM10 11.021q1.312 0 2.208-.896.896-.896.896-2.208 0-1.292-.906-2.198-.906-.907-2.198-.907-1.312 0-2.208.907-.896.906-.896 2.198 0 1.333.906 2.218.906.886 2.198.886Z"/></svg>

<svg xmlns="http://www.w3.org/2000/svg" height="20" width="20"><path d="M9.396 12.188Q7.833 11.917 6.76 10.75Q5.688 9.583 5.688 8.042Q5.688 6.208 6.927 4.906Q8.167 3.604 10 3.604Q11.833 3.604 13.073 4.906Q14.312 6.208 14.312 8.042Q14.312 9.583 13.24 10.75Q12.167 11.917 10.604 12.188V14.625H11.812Q12 14.625 12.135 14.76Q12.271 14.896 12.271 15.083Q12.271 15.271 12.135 15.417Q12 15.562 11.812 15.562H10.604V16.625Q10.604 16.854 10.417 17.042Q10.229 17.229 10 17.229Q9.771 17.229 9.583 17.042Q9.396 16.854 9.396 16.625V15.562H8.208Q8.021 15.562 7.875 15.427Q7.729 15.292 7.729 15.083Q7.729 14.896 7.865 14.76Q8 14.625 8.208 14.625H9.396ZM10 11.021Q11.312 11.021 12.208 10.125Q13.104 9.229 13.104 7.917Q13.104 6.625 12.198 5.719Q11.292 4.812 10 4.812Q8.688 4.812 7.792 5.719Q6.896 6.625 6.896 7.917Q6.896 9.25 7.802 10.135Q8.708 11.021 10 11.021Z"/></svg>
